RestoDelMundo/Varios/Servico Grafico  Df.svg

<svg xmlns="http://www.w3.org/2000/svg" viewBox="0 0 612 792"><path d="M166.874 170.874h277.004v310.805c0 186.318-277.004 186.318-277.004 0V170.874z" style="fill-rule:evenodd;clip-rule:evenodd;fill:#fff;stroke:#2e3192;stroke-width:5.7481;stroke-linejoin:round;stroke-miterlimit:2.6131"/><path fill="#ed1c24" fill-rule="evenodd" d="M299.597 179.118h-122.83v299.263h122.83zM176.899 484.977c3.018 81.634 61.994 123.707 122.698 126.215V484.977z" clip-rule="evenodd"/><path fill="#2e3192" fill-rule="evenodd" d="M311.147 179.118h122.83v299.263h-122.83zm122.698 305.859c-3.018 81.634-61.994 123.707-122.698 126.215V484.977z" clip-rule="evenodd"/><path fill="#fff" fill-rule="evenodd" d="M376.781 231.787h31.078v91.904H394.54v-74.145h-4.44v203.787h4.44V346.334h13.319v124.758h-31.078zM338.656 231.787h31.078v91.904h-13.319v-74.145h-4.44v96.788h17.759v124.758h-31.078v-98.563h13.319v80.804h4.44V359.2h-4.44v.009h-13.319zM265.855 421.278c30.604 1.819 56.249 22.077 65.989 49.814h-11.565a64 64 0 0 0-2.179-4.643h-40.164v4.643h-12.08v-49.814zm-8.994 49.814h-12.08v-4.643h-40.165a64 64 0 0 0-2.179 4.643h-11.566c9.741-27.738 35.387-47.995 65.99-49.814zm-12.08-14.478v-22.501c-13.613 3.65-25.435 11.687-33.856 22.501zm33.154-22.501v22.501h33.856c-8.421-10.813-20.243-18.85-33.856-22.501" clip-rule="evenodd"/></svg>

<svg enable-background="new 0 0 612 792" viewBox="0 0 612 792" xmlns="http://www.w3.org/2000/svg"><g><path d="M 166.874 170.874 h 277.004 c 0 103.601 0 207.203 0 310.805 c 0 186.318 -277.004 186.318 -277.004 0 V 170.874 L 166.874 170.874 z" style="fill-rule:evenodd;clip-rule:evenodd;fill:#fff;stroke:#2e3192;stroke-width:5.7481;stroke-linejoin:round;stroke-miterlimit:2.6131"/><path clip-rule="evenodd" d="M 299.597 179.118 h -122.83 c 0 99.754 0 199.509 0 299.263 h 122.83 V 179.118 L 299.597 179.118 z M 176.899 484.977 c 3.018 81.634 61.994 123.707 122.698 126.215 V 484.977 H 176.899 L 176.899 484.977 z" fill="#ed1c24" fill-rule="evenodd"/><path clip-rule="evenodd" d="M 311.147 179.118 h 122.83 c 0 99.754 0 199.509 0 299.263 h -122.83 V 179.118 L 311.147 179.118 z M 433.845 484.977 c -3.018 81.634 -61.994 123.707 -122.698 126.215 V 484.977 H 433.845 L 433.845 484.977 z" fill="#2e3192" fill-rule="evenodd"/><path clip-rule="evenodd" d="M 376.781 231.787 L 407.859 231.787 L 407.859 323.691 L 394.54 323.691 L 394.54 249.546 L 390.1 249.546 L 390.1 453.333 L 394.54 453.333 L 394.54 346.334 L 407.859 346.334 L 407.859 471.092 L 376.781 471.092 L 376.781 231.787 Z" fill="#fff" fill-rule="evenodd"/><path clip-rule="evenodd" d="M 338.656 231.787 L 369.734 231.787 L 369.734 323.691 L 356.415 323.691 L 356.415 249.546 L 351.975 249.546 L 351.975 346.334 L 356.415 346.334 L 365.278 346.334 L 369.734 346.334 L 369.734 471.092 L 338.656 471.092 L 338.656 372.529 L 351.975 372.529 L 351.975 453.333 L 356.415 453.333 L 356.415 359.2 L 351.975 359.2 L 351.975 359.209 L 338.656 359.209 L 338.656 231.787 Z" fill="#fff" fill-rule="evenodd"/><path clip-rule="evenodd" d="M 265.855 421.278 c 30.604 1.819 56.249 22.077 65.989 49.814 h -11.565 c -.666 -1.581 -1.393 -3.129 -2.179 -4.643 h -40.164 v 4.643 h -12.08 V 421.278 L 265.855 421.278 z M 256.861 471.092 h -12.08 v -4.643 h -40.165 c -.786 1.514 -1.513 3.061 -2.179 4.643 h -11.566 c 9.741 -27.738 35.387 -47.995 65.99 -49.814 V 471.092 L 256.861 471.092 z M 244.781 456.614 v -22.501 c -13.613 3.65 -25.435 11.687 -33.856 22.501 H 244.781 L 244.781 456.614 z M 277.935 434.113 v 22.501 h 33.856 C 303.37 445.801 291.548 437.764 277.935 434.113 L 277.935 434.113 z" fill="#fff" fill-rule="evenodd"/></g></svg>
